packages/kaspersky-hexa-ui-icons/src/iconsSVGs/24/Plugin.svg

<svg xmlns="http://www.w3.org/2000/svg" width="24" height="24" fill="none" viewBox="0 0 24 24"><path fill="#000" fill-rule="evenodd" d="M11 4c-.5523 0-1 .4477-1 1 0 .344 0 .6748.0019.9942L10.0078 7H7c-1.1046 0-2 .8954-2 2v8c0 1.1046.8954 2 2 2h1c0-1.6569 1.3431-3 3-3s3 1.3431 3 3h1c1.1046 0 2-.8954 2-2v-3.0182l1.0123.0124c.3108.0039.6397.0058.9877.0058.5523 0 1-.4477 1-1s-.4477-1-1-1c-.3477 0-.676.0022-.9859.0066L17 12.0209V9c0-1.1046-.8954-2-2-2h-2.9695l-.0192-.9804A52 52 0 0 1 12 5c0-.5523-.4477-1-1-1M8 5c0-1.6568 1.3431-3 3-3s3 1.3432 3 3h1c2.2091 0 4 1.7909 4 4v1c1.6569 0 3 1.3431 3 3s-1.3431 3-3 3v1c0 2.2091-1.7909 4-4 4h-3.012l.0091-1.009C12 19.6714 12 19.3416 12 19c0-.5523-.4477-1-1-1s-1 .4477-1 1c0 .349 0 .6793.002.9938L10.0082 21H7c-2.2091 0-4-1.7909-4-4V9c0-2.2091 1.7909-4 4-4z"/></svg>

<svg width="24" height="24" viewBox="0 0 24 24" fill="none" xmlns="http://www.w3.org/2000/svg">
<path fill-rule="evenodd" clip-rule="evenodd" d="M11 4C10.4477 4 10 4.44772 10 5C10 5.34402 10 5.67483 10.0019 5.99415L10.0078 7H7C5.89543 7 5 7.89543 5 9V17C5 18.1046 5.89543 19 7 19H8C8 17.3431 9.34315 16 11 16C12.6569 16 14 17.3431 14 19H15C16.1046 19 17 18.1046 17 17V13.9818L18.0123 13.9942C18.3231 13.9981 18.652 14 19 14C19.5523 14 20 13.5523 20 13C20 12.4477 19.5523 12 19 12C18.6523 12 18.324 12.0022 18.0141 12.0066L17 12.0209V9C17 7.89543 16.1046 7 15 7H12.0305L12.0113 6.01958C12.0049 5.6935 12 5.35253 12 5C12 4.44772 11.5523 4 11 4ZM8 5C8 3.34315 9.34315 2 11 2C12.6569 2 14 3.34315 14 5H15C17.2091 5 19 6.79086 19 9V10C20.6569 10 22 11.3431 22 13C22 14.6569 20.6569 16 19 16V17C19 19.2091 17.2091 21 15 21H11.988L11.9971 19.991C12 19.6714 12 19.3416 12 19C12 18.4477 11.5523 18 11 18C10.4477 18 10 18.4477 10 19C10 19.349 10 19.6793 10.002 19.9938L10.0082 21H7C4.79086 21 3 19.2091 3 17V9C3 6.79086 4.79086 5 7 5H8Z" fill="black"/>
</svg>
